X: 1
T: Little Dutch Girl
O: from Earl Collins
R: reel
Z: 2020 John Chambers <jc:trillian.mit.edu>
S: https://www.facebook.com/groups/Fiddletuneoftheday/ 2020-09-29
S: https://www.facebook.com/groups/Fiddletuneoftheday/photos/
R: Earl Collins and Bob Holt said they heard the tune played in Douglas County, Mo., when they were young.
M: C|
L: 1/8
K: A
cd |\
"A"e2ee e2d2 | c3d c2AB | cBcc d2c2 | "E"B3c B2Bc |
"D"df2g f3f | "A"efed cBAB | c2cc "E"BcB2 | "A"A3B A2 :|
|: A2 |\
"A"e2ef a2f2 | efed cBA2 | e2ef a2ec | "E"e3f e2cd |
"A"e2ef a2f2 | efed cBAB | c2cc "E"BcB2 | "A"A3B A2 :|
%%text The two parts may be played in either order.
